X: 20864
T: Jolly Joker, The
R: jig
M: 6/8
K: Dmajor
|:Ddd dFG|ABG FGE|Ddd dAF|GBA GFE|
Ddd Fdd|Edd Ddd|fdB AGF|EBA GFE:|
|:FEF D3|DFA AGE|FEF D3|fdB Bcd|
FEF D3|DFA AGF|GBG FAF|EBA GFE:|

